svg_80x80/rails.svg

<svg viewBox="0 0 80 80" xmlns="http://www.w3.org/2000/svg">
<rect width="100%" height="100%" fill="#CC0000"/>
<path d="M44.0773 17.9602H43.7623L43.7173 17.9511C42.7903 17.9511 41.8723 17.9876 40.9993 18.0879L40.3963 16.1915C41.4056 16.0661 42.4215 16.0021 43.4383 16L44.0773 17.9602Z" fill="white"/>
<path d="M55.3004 30.0133L55.4624 27.9892C56.506 28.054 57.5436 28.1942 58.5675 28.4086L58.4415 30.3962C57.4078 30.1744 56.3566 30.0463 55.3004 30.0133Z" fill="white"/>
<path d="M45.2834 29.8127L46.0124 32.0373C46.8886 31.5832 47.7971 31.1962 48.7304 30.8794L48.0284 28.7551C47.078 29.0389 46.1461 29.383 45.2384 29.7853L45.2834 29.8127Z" fill="white"/>
<path d="M29.4522 19.1363L30.8832 21.361L30.8292 21.3336C30.0012 21.7439 29.2002 22.2271 28.4352 22.7741L26.9772 20.5222C27.8322 20.0025 28.6602 19.5557 29.4522 19.1363Z" fill="white"/>
<path d="M37.3003 35.8027L38.8213 38.1185C39.3938 37.2951 40.0319 36.5206 40.7293 35.8027L39.2983 33.6146C38.5745 34.2875 37.9062 35.0193 37.3003 35.8027Z" fill="white"/>
<path d="M35.3023 48.2114L32.7282 46.16C32.9743 44.9651 33.2929 43.7867 33.6823 42.6316L35.9683 44.4551C35.655 45.6888 35.4324 46.9443 35.3023 48.2114Z" fill="white"/>
<path d="M18.8231 30.8794L16.6001 28.8827C15.7721 29.6942 14.9801 30.4965 14.2511 31.2988L16.6901 33.4231C17.3291 32.557 18.0671 31.6817 18.8231 30.8794Z" fill="white"/>
<path d="M5.58401 43.908L9.23805 45.2574L9.1435 45.4796C8.65228 46.6342 8.0342 48.087 7.65403 49.114L4 47.7646C4.315 46.8985 4.98101 45.2847 5.58401 43.908Z" fill="white"/>
<path d="M32.2512 54.3747C32.2951 55.731 32.4244 57.0831 32.6382 58.4227L36.4453 59.8086C36.1199 58.4278 35.8646 57.031 35.6803 55.6237L32.2512 54.3747Z" fill="white"/>
<path d="M37.3479 33.5436C27.626 43.7943 31.3056 60.7568 31.3056 60.7568H6.2224C6.2224 60.7568 7.1674 51.2292 13.8365 39.9785C18.243 32.5446 24.7125 26.3009 31.2509 22.686C34.6079 20.8299 37.9832 19.6669 41.1067 19.3916C59.4939 17.5044 76 34.189 76 34.189C76 34.189 75.9662 34.2158 75.9068 34.2635C75.7283 34.4067 75.3182 34.7383 74.893 35.1007C57.5024 22.0373 46.6383 27.4947 42.7848 29.4305C42.6419 29.5023 42.5083 29.5694 42.3847 29.6303C40.3991 30.7518 38.7367 32.0792 37.3479 33.5436Z" fill="white"/>
<path d="M58.4768 21.2151L58.6028 19.0634C57.619 18.5778 56.5873 18.1989 55.5248 17.9329L55.3988 20.0572C56.4428 20.3672 57.4598 20.7501 58.4768 21.2151Z" fill="white"/>
</svg>

<svg xmlns="http://www.w3.org/2000/svg" viewBox="0 0 80 80">
  <rect width="100%" height="100%" fill="#C00"/>
  <path fill="#fff" d="M44 18h-3l-.6-1.8 3-.2.7 2ZM55.3 30l.2-2c1 0 2 .2 3 .4v2c-1-.2-2.1-.4-3.2-.4ZM45.3 29.8 46 32l2.7-1.1-.7-2.1c-1 .2-1.9.6-2.8 1ZM29.5 19.1l1.4 2.3c-.9.3-1.7.8-2.5 1.4L27 20.5l2.5-1.4ZM37.3 35.8l1.5 2.3c.6-.8 1.2-1.6 2-2.3l-1.5-2.2-2 2.2ZM35.3 48.2l-2.6-2a30 30 0 0 1 1-3.6l2.3 1.9a26 26 0 0 0-.7 3.7ZM18.8 30.9l-2.2-2-2.3 2.4 2.4 2.1 2.1-2.5ZM5.6 44l3.6 1.3v.2C8.6 46.6 8 48 7.6 49L4 47.8l1.6-3.9ZM32.3 54.4c0 1.3.1 2.7.3 4l3.8 1.4a42 42 0 0 1-.7-4.2l-3.4-1.2Z"/>
  <path fill="#fff" d="M37.3 33.5c-9.7 10.3-6 27.3-6 27.3h-25s.9-9.6 7.5-20.8a48.4 48.4 0 0 1 17.5-17.3c3.3-1.9 6.7-3 9.8-3.3C59.5 17.5 76 34.2 76 34.2l-1.1.9c-17.4-13-28.3-7.6-32.1-5.7l-.4.2c-2 1.2-3.7 2.5-5 4ZM58.5 21.2l.1-2.1-3-1.2-.2 2.2 3 1.1Z"/>
</svg>
